X:1
T:Dimen Dru Deelish -- Reel
R:reel
B:Ryan's Mammoth Collection
N:182
N:The book has the triplets written as demisemiquavers.
Z:Contributed by Ray Davies,  ray:davies99.freeserve.co.uk
M:2/4
L:1/16
K:Ador
u(AB)|\
(cE)(3.E.E.E cded | cE(EF) .G2(AB) | (cE)(3.E.E.E cded | cABG .A2(AB) |
(cE)(3.E.E.E cded | cEEF .G2(AB) | (cE)(3.E.E.E cded | cABG A2z2 ::
(ea).a.f (ef).e.d | ^cdef .g2(fg) | (ea).a.f (ef).e.d | ^cAB^G .A2(cd) |
(ea).a.f (ef).e.d | ^cdef .g2(fg) | afge fded | cA^GB A2z2 :|
